icons/volume-mute-outline.svg

<svg width="24" height="24" viewBox="0 0 24 24" fill="none" xmlns="http://www.w3.org/2000/svg">
<path fill-rule="evenodd" clip-rule="evenodd" d="M6 16.0001L10.537 19.9271C10.954 20.0651 11.301 20.0451 11.578 19.8691C11.856 19.6931 11.997 19.3931 12 18.9681L12.004 5.29009C12.021 4.71409 11.88 4.33709 11.582 4.16009C11.284 3.98309 10.937 3.95309 10.542 4.07009L6.003 8.00009H4.003C2.668 8.00609 2 8.67309 2 10.0001V13.9981C2 15.3231 2.667 15.9941 4 16.0131L6 16.0001ZM6.001 13.9981H4.001L4 10.0001H6C6.151 10.0001 7.486 8.99109 10.004 6.97309V17.2121C7.487 15.0691 6.153 13.9981 6 13.9981H6.001ZM15.351 15.6501L17.594 13.4071L19.836 15.6501C20.3 16.1301 20.771 16.1301 21.251 15.6501C21.731 15.1701 21.731 14.6991 21.251 14.2361L19.008 11.9931L21.25 9.75009C21.721 9.27909 21.721 8.80809 21.25 8.33609C20.778 7.86509 20.307 7.86509 19.835 8.33609L17.593 10.5791L15.35 8.33609C14.89 7.85409 14.418 7.85409 13.936 8.33609C13.454 8.81809 13.454 9.29009 13.936 9.75009L16.178 11.9931L13.936 14.2361C13.464 14.7061 13.464 15.1781 13.936 15.6501C14.408 16.1221 14.879 16.1221 15.35 15.6501H15.351Z" fill="#3A3A47"/>
</svg>

<svg xmlns="http://www.w3.org/2000/svg" width="24" height="24" viewBox="0 0 24 24">
    <path fill="#3A3A47" fill-rule="evenodd" d="M11.578 19.87c.278-.177.419-.477.422-.902l.004-13.678c.017-.576-.124-.953-.422-1.13-.298-.177-.645-.207-1.04-.09L6.003 8h-2C2.668 8.006 2 8.673 2 10v3.998c0 1.325.667 1.996 2 2.015L6 16l4.537 3.927c.417.138.764.118 1.041-.058zm-1.574-2.658C7.487 15.069 6.153 13.998 6 13.998h-2L4 10h2c.151 0 1.486-1.009 4.004-3.027v10.239zm5.347-1.562l2.243-2.243 2.242 2.243c.464.48.935.48 1.415 0s.48-.951 0-1.414l-2.243-2.243L21.25 9.75c.471-.471.471-.942 0-1.414-.472-.471-.943-.471-1.415 0l-2.242 2.243-2.243-2.243c-.46-.482-.932-.482-1.414 0-.482.482-.482.954 0 1.414l2.242 2.243-2.242 2.243c-.472.47-.472.942 0 1.414s.943.472 1.414 0z"/>
</svg>
